www/assets/icons/exposure_neg_1.svg

<svg xmlns="http://www.w3.org/2000/svg" width="24" height="24" viewBox="0 0 24 24" fill='currentColor'><path d="M4.5 11.5v2h8v-2zm15 7h-2V7.88l-3 1.02V7.2l4.7-1.7h.3z"/></svg>

<svg width="24" height="24" viewBox="0 0 24 24" xmlns="http://www.w3.org/2000/svg" fill='currentColor'><path d="M4.5 11.5V13.5H12.5V11.5H4.5ZM19.5 18.5H17.5V7.88L14.5 8.9V7.2L19.2 5.5H19.5V18.5Z"/></svg>
